src/assets/icons/wallet.svg

<svg width="14" height="14" viewBox="0 0 14 14" fill="none" xmlns="http://www.w3.org/2000/svg">
<g id="wallet">
<g clip-path="url(#clip0_156_4522)">
<g id="Vector">
<path d="M11.599 8.59951C11.599 9.15177 11.1513 9.59946 10.599 9.59946C10.0468 9.59946 9.59907 9.15177 9.59907 8.59951C9.59907 8.04726 10.0468 7.59957 10.599 7.59957C11.1513 7.59957 11.599 8.04726 11.599 8.59951Z" fill="black"/>
<path fill-rule="evenodd" clip-rule="evenodd" d="M12.3989 3.19982H12.5989C13.3708 3.19982 13.9988 3.82778 13.9996 4.60053V12.6001C13.9996 13.372 13.3716 14 12.5997 14H1.40032C0.628361 14 0.000396729 13.372 0.000396729 12.6001V4.60053C0.000396729 4.50614 0.010796 4.41414 0.028395 4.32455C0.0316968 4.30804 0.0369451 4.29209 0.0421724 4.2762C0.0458104 4.26515 0.0494382 4.25412 0.0523927 4.24296C0.0675918 4.18296 0.0835916 4.12297 0.10679 4.06697C0.115325 4.04617 0.125993 4.02678 0.136661 4.0074C0.141992 3.99772 0.147323 3.98803 0.152387 3.97817C0.156068 3.97081 0.159714 3.96344 0.163353 3.9561C0.184231 3.91394 0.204896 3.87221 0.230782 3.83338C0.244026 3.81325 0.259025 3.79487 0.273919 3.77662C0.281515 3.76731 0.289084 3.75804 0.296379 3.74858L0.298707 3.74555C0.329894 3.705 0.36045 3.66528 0.395574 3.62859C0.413894 3.60972 0.433755 3.59277 0.453553 3.57588C0.462283 3.56843 0.471001 3.56099 0.479569 3.5534C0.485082 3.54859 0.490562 3.54378 0.496027 3.53898C0.527828 3.51107 0.559149 3.48357 0.593964 3.459C0.62219 3.43903 0.651601 3.42203 0.681178 3.40493C0.685968 3.40216 0.690762 3.39938 0.695557 3.3966C0.736355 3.3726 0.777153 3.34861 0.821151 3.32861C0.851644 3.31463 0.882641 3.30368 0.914143 3.29256C0.922309 3.28967 0.93051 3.28677 0.938744 3.28381C0.982726 3.26862 1.02675 3.25341 1.07314 3.24221C1.11553 3.23261 1.15873 3.22621 1.20273 3.21981C1.21541 3.2181 1.22765 3.2155 1.2399 3.21291C1.25622 3.20945 1.27255 3.20599 1.28992 3.20462L10.8094 0.0303938C10.8702 0.0103949 10.9342 0 10.999 0C11.7709 0 12.3989 0.627964 12.3989 1.39992V3.19982ZM11.199 1.39992C11.199 1.31433 11.1414 1.23832 11.063 1.21113L5.09771 3.19982H11.199V1.39992ZM12.5989 12.7993C12.7077 12.7993 12.7989 12.7081 12.7989 12.5993V4.59974C12.7989 4.49095 12.7077 4.39975 12.5989 4.39975H1.39952C1.29072 4.39975 1.19953 4.49095 1.19953 4.59974V12.5993C1.19953 12.7081 1.29072 12.7993 1.39952 12.7993H12.5989Z" fill="black"/>
</g>
</g>
</g>
<defs>
<clipPath id="clip0_156_4522">
<rect width="14" height="14" fill="white"/>
</clipPath>
</defs>
</svg>

<svg xmlns="http://www.w3.org/2000/svg" fill="none" viewBox="0 0 14 14"><g fill="#000" clip-path="url(#a)"><path d="M11.599 8.6a1 1 0 1 1-2 0 1 1 0 0 1 2 0"/><path fill-rule="evenodd" d="M12.399 3.2h.2c.772 0 1.4.628 1.4 1.4v8c0 .772-.627 1.4-1.4 1.4H1.4C.628 14 0 13.372 0 12.6v-8q0-.141.028-.275l.014-.049.01-.033q.022-.091.055-.176a1 1 0 0 1 .045-.089l.011-.022q.03-.064.068-.123l.043-.056.022-.028.003-.003a.833.833 0 0 1 .18-.192l.017-.015q.047-.042.098-.08.043-.03.087-.054l.015-.008a1.094 1.094 0 0 1 .219-.104l.024-.01c.044-.014.088-.03.134-.04q.064-.014.13-.023l.037-.007.05-.008L10.81.03q.09-.03.189-.03c.772 0 1.4.628 1.4 1.4zm-1.2-1.8a.2.2 0 0 0-.136-.189L5.098 3.2h6.101zm1.4 11.4c.109 0 .2-.092.2-.2v-8c0-.109-.091-.2-.2-.2h-11.2c-.108 0-.2.09-.2.2v8c0 .108.092.2.2.2z" clip-rule="evenodd"/></g><defs><clipPath id="a"><path fill="#fff" d="M0 0h14v14H0z"/></clipPath></defs></svg>
